X:1
T:Title
%%score { ( 1 3 ) | ( 2 4 ) }
L:1/8
Q:1/4=108
M:4/4
K:G
V:1 treble nm="Grand Piano"
V:3 treble 
V:2 treble 
V:4 treble 
V:1
 B2 d2 d2 G2 | [EA]2 [EG]2 [CE][EG][DF]E | D2 [DG]2 [DA]2 [DB]2 | A6 z2 | B2 d2 d2 G2 | %5
w: E.~S.~Lorenz * * *|||||
 [EA]2 [EG]2 [CE][EG][DF]E | D2 B2 B2 A2 | [B,G]6 z2 | [EG]2 [Ec]2 [Ec][Ec][EG][EA] | [DB]6 z2 | %10
w: |||||
 [^CA]2 [E^c]2 [Ec][Gc][GB][Gc] |[M:9/8] d2- [A,Fd-] [Gd-] [Ad]2- [Ad]B[Ac] | %12
w: ||
[M:4/4] [Bd][Bd]BA G2 FG | [EA][EB][Ec][Gd] [Ge]2 z2 | [Fd]2 [FA]2 [Ac][Ac][GB][CDA] | G6 z2 |] %16
w: ||||
V:2
 [G,D]2 [G,B,G]2 [G,B,G]2[K:bass] [G,B,]2 | [C,C]2 [C,C]2 [C,G,][C,G,][B,,G,][C,G,C] | %2
 [B,,G,]2 [B,,G,]2 [A,,F,]2 [G,,G,]2 | [D,F,D]6 z2 | [G,D]2 [G,B,G]2 [G,B,G]2[K:bass] [G,B,]2 | %5
 [C,C]2 [C,C]2 [C,G,][C,G,][C,G,][C,G,C] | [D,G,B,]2 [D,G,D]2 [D,F,D]2 [D,F,C]2 | [G,,G,]6 z2 | %8
 [C,G,]2 [C,G,]2 [C,G,]2 [C,G,]2 | [G,,G,]2 G,,2 G,,2 z2 | [A,,E,]2 [A,,A,]2 [A,,A,]2 [A,,A,]2 | %11
[M:9/8] .[D,A,]3 B, [D,C]2- [D,C][K:treble][G,DG][G,D] | %12
[M:4/4] [G,D][G,D][G,DG][K:bass][G,CD] [G,B,D]2 [A,CD][G,B,D] | [C,C][C,B,][C,A,][C,B,] [C,C]2 z2 | %14
 [D,A,]2 [D,D]2 [D,D][D,D][D,D]D, | z2 CC B,2 z2 |] %16
V:3
 x8 | x8 | x8 | x8 | x8 | x8 | x8 | x8 | x8 | z2 G,2 G,2 z2 | x8 |[M:9/8] .F3 z3 z3 |[M:4/4] x8 | %13
 x8 | x8 | [B,D]2 EE D2 z2 |] %16
V:4
 x6[K:bass] x2 | x8 | x8 | x8 | x6[K:bass] x2 | x8 | x8 | x8 | x8 | x8 | x8 | %11
[M:9/8] z2 D,- D, z z z3[K:treble] |[M:4/4] x3[K:bass] x5 | x8 | x8 | G,,6 z2 |] %16

